X:584
T:Reel 584
M:4/4
K:Gmaj
L:1/8
B>G (3GFG D>G (3GFG |A>G (3GFG D>G (3AGF |D>G (3GFG B>G (3GFG |ADFA =fdcA:||2=fdcA BGBd|gfgd gfg2BG|Ggfe dcBG|A>F (3FFF AFcBAc|B>G (3GGG d>G (3GFG |A>F (3FFF ABcA|d>g (3gfg b>g (3gfg |d>g (3gfg bgag|=f>g (3fff gagf|=fefe =fgdc|dggf gagfg>d (3BAG |ggfg egfg|agag fdeB|cAFA =fdcA|
